gama.ui.shared/icons_svg/dark/views/open.parameters.svg

<svg height="25" viewBox="-526.483 -3025.285 25 25" width="25" xmlns="http://www.w3.org/2000/svg"><g fill="none"><path d="m-505.82276-3024.7847h-16.32c-2.12074 0-3.84 1.7192-3.84 3.84v16.32c0 2.1207 1.71926 3.84 3.84 3.84h16.32c2.12076 0 3.84-1.7193 3.84-3.84v-16.32c0-2.1208-1.71924-3.84-3.84-3.84z" fill="#666"/><path d="m-505.82276-3024.7847h-16.32c-2.12074 0-3.84 1.7192-3.84 3.84v16.32c0 2.1207 1.71926 3.84 3.84 3.84h16.32c2.12076 0 3.84-1.7193 3.84-3.84v-16.32c0-2.1208-1.71924-3.84-3.84-3.84z" stroke="#fff" stroke-linecap="round" stroke-linejoin="round" stroke-width=".25"/><path d="m-517.5383-3007.9092h-4c-.2489 0-.44446-.1955-.44446-.4444s.19556-.4444.44446-.4444h4v-.889c0-.489.4-.889.8889-.889h1.77775c.48889 0 .88889.4.88889.889v.889h7.55556c.2489 0 .44444.1955.44444.4444s-.19554.4444-.44444.4444h-7.55556v.9156c0 .4889-.4.8889-.88889.8889h-1.77775c-.4889 0-.8889-.4-.8889-.8889zm5.3333-4.4444h-9.3333c-.2489 0-.44446-.1956-.44446-.4444 0-.249.19556-.4445.44446-.4445h9.3333v-.8889c0-.4889.4-.8889.8889-.8889h1.7778c.4889 0 .8889.4.8889.8889v.8889h2.2222c.2489 0 .44444.1955.44444.4445 0 .2488-.19554.4444-.44444.4444h-2.2222v.9156c0 .4888-.4.8888-.8889.8888h-1.7778c-.4889 0-.8889-.4-.8889-.8888zm-8-4.4444h-1.3333c-.2489 0-.44446-.1956-.44446-.4445s.19556-.4445.44446-.4445h1.3333v-.889c0-.4887.4-.8887.8889-.8887h1.7778c.4889 0 .8889.4.8889.8887v.889h10.2222c.2489 0 .44444.1956.44444.4445s-.19554.4445-.44444.4445h-10.2222v.9155c0 .4889-.4.8889-.8889.8889h-1.7778c-.4889 0-.8889-.4-.8889-.8889zm.8889-1.778v2.6935h1.7778v-2.6935zm8 4.4446v2.6934h1.7778v-2.6934zm-5.3333 4.4444v2.6934h1.77775v-2.6934z" fill="#c0e0ff"/></g></svg>

<?xml version="1.0" encoding="UTF-8" standalone="no"?>
<!DOCTYPE svg PUBLIC "-//W3C//DTD SVG 1.1//EN" "http://www.w3.org/Graphics/SVG/1.1/DTD/svg11.dtd">
<svg xmlns="http://www.w3.org/2000/svg" xmlns:xl="http://www.w3.org/1999/xlink" version="1.1" xmlns:dc="http://purl.org/dc/elements/1.1/" viewBox="-526.48276 -3025.2847 25 25" width="25" height="25">
  <defs/>
  <g id="SOURCES" stroke-opacity="1" fill="none" stroke="none" fill-opacity="1" stroke-dasharray="none">
    <title>SOURCES</title>
    <g id="SOURCES_Dark">
      <title>Dark</title>
      <g id="Graphic_11075">
        <path d="M -505.82276 -3024.7847 L -522.14276 -3024.7847 C -524.2635 -3024.7847 -525.98276 -3023.0655 -525.98276 -3020.9447 L -525.98276 -3004.6247 C -525.98276 -3002.504 -524.2635 -3000.7847 -522.14276 -3000.7847 L -505.82276 -3000.7847 C -503.702 -3000.7847 -501.98276 -3002.504 -501.98276 -3004.6247 L -501.98276 -3020.9447 C -501.98276 -3023.0655 -503.702 -3024.7847 -505.82276 -3024.7847 Z" fill="#666"/>
        <path d="M -505.82276 -3024.7847 L -522.14276 -3024.7847 C -524.2635 -3024.7847 -525.98276 -3023.0655 -525.98276 -3020.9447 L -525.98276 -3004.6247 C -525.98276 -3002.504 -524.2635 -3000.7847 -522.14276 -3000.7847 L -505.82276 -3000.7847 C -503.702 -3000.7847 -501.98276 -3002.504 -501.98276 -3004.6247 L -501.98276 -3020.9447 C -501.98276 -3023.0655 -503.702 -3024.7847 -505.82276 -3024.7847 Z" stroke="white" stroke-linecap="round" stroke-linejoin="round" stroke-width=".25"/>
      </g>
      <g id="Graphic_11074">
        <path d="M -517.5383 -3007.9092 L -521.5383 -3007.9092 C -521.7872 -3007.9092 -521.98276 -3008.1047 -521.98276 -3008.3536 C -521.98276 -3008.6025 -521.7872 -3008.798 -521.5383 -3008.798 L -517.5383 -3008.798 L -517.5383 -3009.687 C -517.5383 -3010.176 -517.1383 -3010.576 -516.6494 -3010.576 L -514.87165 -3010.576 C -514.38276 -3010.576 -513.98276 -3010.176 -513.98276 -3009.687 L -513.98276 -3008.798 L -506.4272 -3008.798 C -506.1783 -3008.798 -505.98276 -3008.6025 -505.98276 -3008.3536 C -505.98276 -3008.1047 -506.1783 -3007.9092 -506.4272 -3007.9092 L -513.98276 -3007.9092 L -513.98276 -3006.9936 C -513.98276 -3006.5047 -514.38276 -3006.1047 -514.87165 -3006.1047 L -516.6494 -3006.1047 C -517.1383 -3006.1047 -517.5383 -3006.5047 -517.5383 -3006.9936 Z M -512.205 -3012.3536 L -521.5383 -3012.3536 C -521.7872 -3012.3536 -521.98276 -3012.5492 -521.98276 -3012.798 C -521.98276 -3013.047 -521.7872 -3013.2425 -521.5383 -3013.2425 L -512.205 -3013.2425 L -512.205 -3014.1314 C -512.205 -3014.6203 -511.805 -3015.0203 -511.3161 -3015.0203 L -509.5383 -3015.0203 C -509.0494 -3015.0203 -508.6494 -3014.6203 -508.6494 -3014.1314 L -508.6494 -3013.2425 L -506.4272 -3013.2425 C -506.1783 -3013.2425 -505.98276 -3013.047 -505.98276 -3012.798 C -505.98276 -3012.5492 -506.1783 -3012.3536 -506.4272 -3012.3536 L -508.6494 -3012.3536 L -508.6494 -3011.438 C -508.6494 -3010.9492 -509.0494 -3010.5492 -509.5383 -3010.5492 L -511.3161 -3010.5492 C -511.805 -3010.5492 -512.205 -3010.9492 -512.205 -3011.438 L -512.205 -3012.3536 Z M -520.205 -3016.798 L -521.5383 -3016.798 C -521.7872 -3016.798 -521.98276 -3016.9936 -521.98276 -3017.2425 C -521.98276 -3017.4914 -521.7872 -3017.687 -521.5383 -3017.687 L -520.205 -3017.687 L -520.205 -3018.576 C -520.205 -3019.0647 -519.805 -3019.4647 -519.3161 -3019.4647 L -517.5383 -3019.4647 C -517.0494 -3019.4647 -516.6494 -3019.0647 -516.6494 -3018.576 L -516.6494 -3017.687 L -506.4272 -3017.687 C -506.1783 -3017.687 -505.98276 -3017.4914 -505.98276 -3017.2425 C -505.98276 -3016.9936 -506.1783 -3016.798 -506.4272 -3016.798 L -516.6494 -3016.798 L -516.6494 -3015.8825 C -516.6494 -3015.3936 -517.0494 -3014.9936 -517.5383 -3014.9936 L -519.3161 -3014.9936 C -519.805 -3014.9936 -520.205 -3015.3936 -520.205 -3015.8825 Z M -519.3161 -3018.576 L -519.3161 -3015.8825 L -517.5383 -3015.8825 L -517.5383 -3018.576 Z M -511.3161 -3014.1314 L -511.3161 -3011.438 L -509.5383 -3011.438 L -509.5383 -3014.1314 L -511.3161 -3014.1314 Z M -516.6494 -3009.687 L -516.6494 -3006.9936 L -514.87165 -3006.9936 L -514.87165 -3009.687 Z" fill="#c0e0ff"/>
      </g>
    </g>
  </g>
</svg>
